X: 17990
T: Hughie McGinley's
R: strathspey
M: 4/4
K: Adorian
af||e2 e>^d e2=d>B|G2B<G D>GB<d|e2 e>d e>de<a|g>ed>B A>eg<a|
e2e>^d e2=d>B|G2B<G D>GB<d|e2 e>d e>de<a|g>ed>B A2A2||
e<aa>g e<aa>f|g>fg>d B<GB>d|e<aa>g e<aa>f|gedB A2A2|
e<aa>g e<aa>f|g>fg>d B<GB>d|e2 e^d e>de<a|g>ed>B A>eg<a||

